X:1
T:Jeffery, CMD
T:Frank Moore Jeffery, 1911
T:Jeffery, CMD
T:Public Domain
C:Frank Moore Jeffery, 1911
Z:Public Domain
%%score ( 1 2 ) ( 3 4 )
L:1/8
M:3/4
K:Ab
V:1 treble 
V:2 treble 
V:3 bass 
V:4 bass 
V:1
 [CE]2 | [Ec]3 [EB] [EA][EG] | [DG][DF] [CE]2 [CE]2 | [DE]3 [D=E] [DF][B,_E] | [CE]4 [CE]2 | %5
 [Ec]3 [EB] [EA][EG] | [DG][DF] [CE]2 [EA]2 | [FA]3 [Ec] [=Dc][DB] | [EB]4 [Ec]2 | %9
 [Dd]3 F [EG][Ed] | [Ec][=D=B] [Ec]2 [Ec]2 | [Dd]3 F [DG][Fd] | [=Ec]4 _E2 | [Ec]3 [EB] [EA][EG] | %14
 [DG][DF] [CE]2 (C=D) | [Ec]3 [Ee] [Ec][DB] | [CA]4 |] %17
V:2
 x2 | x6 | x6 | x6 | x6 | x6 | x6 | x6 | x6 | x3 F x2 | x6 | x3 F x2 | x4 E2 | x6 | x4 A2 | x6 | %16
 x4 |] %17
V:3
 [A,,A,]2 | [A,,A,]3 [B,,G,] [C,A,][A,,A,] | [D,A,][D,A,] [A,,A,]2 A,2 | %3
 [G,B,]3 [G,B,] [E,G,][E,G,] | [A,,A,]4 [A,,A,]2 | [A,,A,]3 [C,G,] [C,A,][A,,A,] | %6
 [D,A,][F,A,] A,2 (A,G,) | [F,C]3 [F,A,] [B,,F,][B,,A,] | [E,G,]4 [E,_G,]2 | %9
 [B,,F,]3 [B,,D] [E,B,][E,G,] | A,_A, _A,2 [F,=A,]2 | [B,,B,]3 [B,,D] [B,,B,][B,,A,] | %12
 [C,G,]4 [A,C]2 | [A,,A,]3 [B,,G,] [C,A,][A,,A,] | [D,A,][F,A,] A,2 [F,A,]2 | %15
 [E,A,]3 [C,A,] [E,G,][E,G,] | [A,,A,]4 |] %17
V:4
 x2 | x6 | x4 A,2 | x6 | x6 | x6 | x2 A,2 C2 | x6 | x6 | x6 | =A,=A, =A,2 x2 | x6 | x6 | x6 | %14
 x2 A,2 x2 | x6 | x4 |] %17

